X:62
T:Quick Step.#4 JBs.062
S:Jas.Blackshaw MS, 1837, N.Shropshire
A:North Shropshire
Z:T. Weatherall 2006
M:2/4
L:1/16
Q:1/4=100
R:Country Dance
K:C
c2|cBcd e2e2|cBcd e2e2|gfef d2d2|gfef d2d2|!
cBcd e2e2|cBcd e2e2|gfef gfef|c2e2 c4:|!
|:gagf e2g2|câ€™4g4|gfef d2d2|gfef d2d2|!
gagf e2g2|câ€™4g4gfef gfef|c2e2 c4:|!
|:â€^fragment of another tune? â€œc2|e6f2|g2a2b2câ€™2|a4a4|a6e2|!
f2g2a2f2|e4e4|e6f2|g2a2b2câ€™2|!
a4a4|a6a2|g2câ€™2b2a2|g2f2e2d2|c2c2 c4:|

